public/logos/18_co/DPAC.svg

<svg viewBox="0 0 40 40" xmlns="http://www.w3.org/2000/svg" fill-rule="evenodd" clip-rule="evenodd" stroke-linejoin="round" stroke-miterlimit="1.414"><circle cx="19.99" cy="20" r="19.62"/><path d="M11.81 15.19l2.93 8.12.95.31v1.19h-4.33v-1.19l1-.31-.32-1H9l-.34 1 1.06.33v1.19H5.64v-1.21l1-.31 3-8.07 2.17-.05zm-1.23 2.4l-1.07 3.23h2.1l-1.03-3.23zm7.19 7.22v-1.19l1.12-.34V16.8h-1.3l-.34 1.3H16v-2.86l7.91-.05v2.91h-1.28l-.34-1.3H21v6.48l1.13.34v1.19h-4.36zm10.7-1.19v1.19h-4v-1.19l1-.34V16.8l-1-.41v-1.13l3.28-.07 3.68 6.3V16.8l-1-.41v-1.13l3.89-.07v1.2l-1 .41v8h-2.26l-3.66-6.17v4.65l1.07.34z" fill="#fff" fill-rule="nonzero"/><g transform="matrix(.191 0 0 .191 -37.301 -37.301)"><circle cx="300" cy="300" r="90.192" fill="#fff4d1"/><clipPath id="a"><circle cx="300" cy="300" r="90.192"/></clipPath><g clip-path="url(#a)"><circle cx="300" cy="300" r="90.192" fill="#82009c"/><path d="M300 197.282c-56.692 0-102.718 46.026-102.718 102.718S243.308 402.718 300 402.718 402.718 356.692 402.718 300 356.692 197.282 300 197.282zm0 12.526c49.778 0 90.192 40.414 90.192 90.192 0 49.778-40.414 90.192-90.192 90.192-49.778 0-90.192-40.414-90.192-90.192 0-49.778 40.414-90.192 90.192-90.192z" fill="#fff"/><path d="M357.72 247.13v69.192c0 5.166-1.006 10.286-3.018 15.361-2.012 5.076-4.505 9.58-7.478 13.515s-6.517 7.763-10.631 11.487-7.913 6.817-11.397 9.28a143.467 143.467 0 01-10.901 6.982c-3.784 2.192-6.472 3.679-8.064 4.46-1.592.78-2.868 1.38-3.829 1.801-.72.36-1.502.54-2.342.54-.841 0-1.622-.18-2.343-.54-.96-.42-2.237-1.02-3.829-1.802s-4.28-2.267-8.063-4.46a143.467 143.467 0 01-10.902-6.982c-3.483-2.462-7.282-5.555-11.397-9.28-4.114-3.723-7.658-7.552-10.631-11.486-2.973-3.935-5.466-8.44-7.478-13.515-2.012-5.075-3.018-10.195-3.018-15.36V247.13c0-1.562.57-2.914 1.712-4.055 1.141-1.14 2.492-1.712 4.054-1.712h103.79c1.56 0 2.912.571 4.053 1.712 1.142 1.141 1.712 2.493 1.712 4.055z" fill="#fff" fill-rule="nonzero" stroke="#000" stroke-width="7.516"/><path d="M340.422 316.322v-57.66H300.06v102.437c7.147-3.784 13.544-7.898 19.19-12.343 14.115-11.051 21.172-21.863 21.172-32.434zm17.298-69.192v69.192c0 5.166-1.006 10.286-3.018 15.361-2.012 5.076-4.505 9.58-7.478 13.515s-6.517 7.763-10.631 11.487-7.913 6.817-11.397 9.28a143.467 143.467 0 01-10.901 6.982c-3.784 2.192-6.472 3.679-8.064 4.46-1.592.78-2.868 1.38-3.829 1.801-.72.36-1.502.54-2.342.54-.841 0-1.622-.18-2.343-.54-.96-.42-2.237-1.02-3.829-1.802s-4.28-2.267-8.063-4.46a143.467 143.467 0 01-10.902-6.982c-3.483-2.462-7.282-5.555-11.397-9.28-4.114-3.723-7.658-7.552-10.631-11.486-2.973-3.935-5.466-8.44-7.478-13.515-2.012-5.075-3.018-10.195-3.018-15.36V247.13c0-1.562.57-2.914 1.712-4.055 1.141-1.14 2.492-1.712 4.054-1.712h103.79c1.56 0 2.912.571 4.053 1.712 1.142 1.141 1.712 2.493 1.712 4.055z" fill-rule="nonzero" stroke="#fff" stroke-width="2.506"/><path fill="#001678" stroke="#eff1e5" stroke-width="1.53" d="M3342.48 3143.86h153.209v18.089H3342.48z" transform="matrix(1.3443 0 0 1.87876 -4296.2 -5623.85)"/><path fill="#000a35" stroke="#eff1e5" stroke-width="1.93" d="M3342.48 3143.86h153.209v18.089H3342.48z" transform="matrix(1.3443 0 0 1.25523 -4296.2 -3657.91)"/><text x="3309.64" y="3137.56" font-family="'TeluguMN','Telugu MN'" font-size="27.332" fill="#fff" transform="translate(-2206.82 -1994.6) scale(.73331)">DENVER PACIFIC</text></g><path d="M300 197.282c-56.692 0-102.718 46.026-102.718 102.718S243.308 402.718 300 402.718 402.718 356.692 402.718 300 356.692 197.282 300 197.282zm0 12.526c49.778 0 90.192 40.414 90.192 90.192 0 49.778-40.414 90.192-90.192 90.192-49.778 0-90.192-40.414-90.192-90.192 0-49.778 40.414-90.192 90.192-90.192z" fill="#82009c"/></g></svg>

<?xml version="1.0" encoding="UTF-8" standalone="no"?>
<!DOCTYPE svg PUBLIC "-//W3C//DTD SVG 1.1//EN" "http://www.w3.org/Graphics/SVG/1.1/DTD/svg11.dtd">
<svg width="100%" height="100%" viewBox="0 0 40 40" version="1.1" xmlns="http://www.w3.org/2000/svg" xmlns:xlink="http://www.w3.org/1999/xlink" xml:space="preserve" xmlns:serif="http://www.serif.com/" style="fill-rule:evenodd;clip-rule:evenodd;stroke-linejoin:round;stroke-miterlimit:1.41421;">
    <circle cx="19.99" cy="20" r="19.62"/>
    <g>
        <path d="M11.81,15.19L14.74,23.31L15.69,23.62L15.69,24.81L11.36,24.81L11.36,23.62L12.36,23.31L12.04,22.31L9,22.31L8.66,23.31L9.72,23.64L9.72,24.83L5.64,24.83L5.64,23.62L6.64,23.31L9.64,15.24L11.81,15.19ZM10.58,17.59L9.51,20.82L11.61,20.82L10.58,17.59Z" style="fill:white;fill-rule:nonzero;"/>
        <path d="M17.77,24.81L17.77,23.62L18.89,23.28L18.89,16.8L17.59,16.8L17.25,18.1L16,18.1L16,15.24L23.91,15.19L23.91,18.1L22.63,18.1L22.29,16.8L21,16.8L21,23.28L22.13,23.62L22.13,24.81L17.77,24.81Z" style="fill:white;fill-rule:nonzero;"/>
        <path d="M28.47,23.62L28.47,24.81L24.47,24.81L24.47,23.62L25.47,23.28L25.47,16.8L24.47,16.39L24.47,15.26L27.75,15.19L31.43,21.49L31.43,16.8L30.43,16.39L30.43,15.26L34.32,15.19L34.32,16.39L33.32,16.8L33.32,24.8L31.06,24.8L27.4,18.63L27.4,23.28L28.47,23.62Z" style="fill:white;fill-rule:nonzero;"/>
    </g>
    <g transform="matrix(0.191005,-7.88001e-18,-9.47616e-18,0.191005,-37.3014,-37.3014)">
        <g id="DPAC">
            <circle id="City" cx="300" cy="300" r="90.192" style="fill:rgb(255,244,209);"/>
            <clipPath id="_clip1">
                <circle id="City1" serif:id="City" cx="300" cy="300" r="90.192"/>
            </clipPath>
            <g clip-path="url(#_clip1)">
                <g id="City2" serif:id="City">
                    <circle cx="300" cy="300" r="90.192" style="fill:rgb(130,0,156);"/>
                    <path d="M300,197.282C243.308,197.282 197.282,243.308 197.282,300C197.282,356.692 243.308,402.718 300,402.718C356.692,402.718 402.718,356.692 402.718,300C402.718,243.308 356.692,197.282 300,197.282ZM300,209.808C349.778,209.808 390.192,250.222 390.192,300C390.192,349.778 349.778,390.192 300,390.192C250.222,390.192 209.808,349.778 209.808,300C209.808,250.222 250.222,209.808 300,209.808Z" style="fill:white;"/>
                </g>
                <g>
                    <g transform="matrix(0.161459,6.66109e-18,8.01034e-18,0.161459,242.399,229.821)">
                        <path d="M714.24,107.2L714.24,535.744C714.24,567.736 708.009,599.449 695.547,630.883C683.085,662.317 667.647,690.217 649.233,714.583C630.819,738.949 608.871,762.664 583.389,785.728C557.907,808.792 534.378,827.95 512.802,843.202C491.226,858.454 468.72,872.869 445.284,886.447C421.848,900.025 405.201,909.232 395.343,914.068C385.485,918.904 377.58,922.624 371.628,925.228C367.164,927.46 362.328,928.576 357.12,928.576C351.912,928.576 347.076,927.46 342.612,925.228C336.66,922.624 328.755,918.904 318.897,914.068C309.039,909.232 292.392,900.025 268.956,886.447C245.52,872.869 223.014,858.454 201.438,843.202C179.862,827.95 156.333,808.792 130.851,785.728C105.369,762.664 83.421,738.949 65.007,714.583C46.593,690.217 31.155,662.317 18.693,630.883C6.231,599.449 0,567.736 0,535.744L0,107.2C0,97.528 3.534,89.158 10.602,82.09C17.67,75.022 26.04,71.488 35.712,71.488L678.528,71.488C688.2,71.488 696.57,75.022 703.638,82.09C710.706,89.158 714.24,97.528 714.24,107.2Z" style="fill:white;fill-rule:nonzero;stroke:black;stroke-width:46.55px;"/>
                    </g>
                    <g transform="matrix(0.161459,6.66109e-18,8.01034e-18,0.161459,242.399,229.821)">
                        <path d="M607.104,535.744L607.104,178.624L357.12,178.624L357.12,813.07C401.388,789.634 441.006,764.152 475.974,736.624C563.394,668.176 607.104,601.216 607.104,535.744ZM714.24,107.2L714.24,535.744C714.24,567.736 708.009,599.449 695.547,630.883C683.085,662.317 667.647,690.217 649.233,714.583C630.819,738.949 608.871,762.664 583.389,785.728C557.907,808.792 534.378,827.95 512.802,843.202C491.226,858.454 468.72,872.869 445.284,886.447C421.848,900.025 405.201,909.232 395.343,914.068C385.485,918.904 377.58,922.624 371.628,925.228C367.164,927.46 362.328,928.576 357.12,928.576C351.912,928.576 347.076,927.46 342.612,925.228C336.66,922.624 328.755,918.904 318.897,914.068C309.039,909.232 292.392,900.025 268.956,886.447C245.52,872.869 223.014,858.454 201.438,843.202C179.862,827.95 156.333,808.792 130.851,785.728C105.369,762.664 83.421,738.949 65.007,714.583C46.593,690.217 31.155,662.317 18.693,630.883C6.231,599.449 0,567.736 0,535.744L0,107.2C0,97.528 3.534,89.158 10.602,82.09C17.67,75.022 26.04,71.488 35.712,71.488L678.528,71.488C688.2,71.488 696.57,75.022 703.638,82.09C710.706,89.158 714.24,97.528 714.24,107.2Z" style="fill-rule:nonzero;stroke:white;stroke-width:15.52px;"/>
                    </g>
                    <g transform="matrix(1.3443,5.54597e-17,9.32096e-17,1.87876,-4296.2,-5623.85)">
                        <rect x="3342.48" y="3143.86" width="153.209" height="18.089" style="fill:rgb(0,22,120);stroke:rgb(239,241,229);stroke-width:1.53px;"/>
                    </g>
                    <g transform="matrix(1.3443,5.54597e-17,6.22747e-17,1.25523,-4296.2,-3657.91)">
                        <rect x="3342.48" y="3143.86" width="153.209" height="18.089" style="fill:rgb(0,10,53);stroke:rgb(239,241,229);stroke-width:1.93px;"/>
                    </g>
                </g>
                <g transform="matrix(0.733314,3.02533e-17,3.63813e-17,0.733314,-2206.82,-1994.6)">
                    <text x="3309.64px" y="3137.56px" style="font-family:'TeluguMN', 'Telugu MN';font-size:27.332px;fill:white;">DENVER PACIFIC</text>
                </g>
            </g>
            <path id="City3" serif:id="City" d="M300,197.282C243.308,197.282 197.282,243.308 197.282,300C197.282,356.692 243.308,402.718 300,402.718C356.692,402.718 402.718,356.692 402.718,300C402.718,243.308 356.692,197.282 300,197.282ZM300,209.808C349.778,209.808 390.192,250.222 390.192,300C390.192,349.778 349.778,390.192 300,390.192C250.222,390.192 209.808,349.778 209.808,300C209.808,250.222 250.222,209.808 300,209.808Z" style="fill:rgb(130,0,156);"/>
        </g>
    </g>
</svg>
